X: 10683
T: COTILLION No. 1. tune 3
C:
%R: jig
B: Elias Howe "The Musician's Companion" Part 1 1842 p.68 #3
S: http://imslp.org/wiki/The_Musician's_Companion_(Howe,_Elias)
Z: 2015 John Chambers <jc:trillian.mit.edu>
M: 6/8
L: 1/8
K: G
% - - - - - - - - - - - - - - - - - - - - - - - - -
d |\
d>ed B2G | A2F EFG | GAB dcB | AcB ABc |\
d>ed B2G | G2E C2e | G2d D2F | G3 G2 H|]
B |\
B>BB B2B | B2e B2B | B>BB B2B | B2c d2_B |\
A>AA A2A | A2d A2A | A>AA A2A | A3 Bc"^D.C."^c |]
g |\
(fg)e cde | (=f/e/f/g/a/f/) (B/c/d/e/f/d/) | (ag)e (g=fd) | (=fe)c d2g |\
(^fg)e cde | (=f/e/f/g/a/f/) (B/c/d/e/f/d/) | (ag)e (g=fd) | cce "^D.C."c2 |]
% - - - - - - - - - - Dance description - - - - - - - - - -
%%begintext align
%% First 2 forward and back --
%% back to back,
%% balance and turn partners,
%% ladies chain,
%% promenade 4,
%% others the same.
%%endtext
% - - - - - - - - - - - - - - - - - - - - - - - - -
%%sep 1 1 300


